assets/membership-password-is-revealing.svg

<svg fill="none" height="13" viewBox="0 0 20 13" width="20" xmlns="http://www.w3.org/2000/svg"><path d="m10 12.9448c5.8667 0 9.9243-4.74607 9.9243-6.22556 0-1.48682-4.0649-6.225588-9.9243-6.225588-5.79346 0-9.9316406 4.738768-9.9316406 6.225588 0 1.47949 4.1381806 6.22556 9.9316406 6.22556zm0-2.146c-2.28516 0-4.09424-1.853-4.10156-4.07956-.00733-2.28516 1.8164-4.07959 4.10156-4.07959 2.2632 0 4.0942 1.79443 4.0942 4.07959 0 2.22656-1.831 4.07956-4.0942 4.07956zm0-2.60739c.813 0 1.4868-.66651 1.4868-1.47217 0-.81299-.6738-1.47949-1.4868-1.47949-.82031 0-1.49414.6665-1.49414 1.47949 0 .80566.67383 1.47217 1.49414 1.47217z" fill="#054f77"/></svg>

<svg width="20" height="13" viewBox="0 0 20 13" fill="none" xmlns="http://www.w3.org/2000/svg">
<path d="M10 12.9448C15.8667 12.9448 19.9243 8.19873 19.9243 6.71924C19.9243 5.23242 15.8594 0.493652 10 0.493652C4.20654 0.493652 0.0683594 5.23242 0.0683594 6.71924C0.0683594 8.19873 4.20654 12.9448 10 12.9448ZM10 10.7988C7.71484 10.7988 5.90576 8.9458 5.89844 6.71924C5.89111 4.43408 7.71484 2.63965 10 2.63965C12.2632 2.63965 14.0942 4.43408 14.0942 6.71924C14.0942 8.9458 12.2632 10.7988 10 10.7988ZM10 8.19141C10.813 8.19141 11.4868 7.5249 11.4868 6.71924C11.4868 5.90625 10.813 5.23975 10 5.23975C9.17969 5.23975 8.50586 5.90625 8.50586 6.71924C8.50586 7.5249 9.17969 8.19141 10 8.19141Z" fill="#054F77"/>
</svg>
